public/shapes/characters/259.svg

<?xml version="1.0" encoding="UTF-8"?>
<svg width="53.05px" height="74.35px" version="1.1" xmlns="http://www.w3.org/2000/svg" xmlns:cc="http://creativecommons.org/ns#" xmlns:dc="http://purl.org/dc/elements/1.1/" xmlns:rdf="http://www.w3.org/1999/02/22-rdf-syntax-ns#">
 <metadata>
  <rdf:RDF>
   <cc:Work rdf:about="">
    <dc:format>image/svg+xml</dc:format>
    <dc:type rdf:resource="http://purl.org/dc/dcmitype/StillImage"/>
    <dc:title/>
   </cc:Work>
  </rdf:RDF>
 </metadata>
 <path d="m1.8369 71.901 42.073 0.26241 0.96218-23.705 4.2861-10.934-4.3735-11.021 4.8984-7.6099-12.683-0.87471-5.5106-8.3097-29.915-0.43735z" fill="#fff"/>
 <g transform="translate(26.5 37.2)" fill-rule="evenodd">
  <path d="m-2.1-13.05q-0.65 0-1.15-0.5-0.5-0.45-0.5-1.15t0.5-1.2q0.45-0.5 1.15-0.5t1.2 0.5 0.5 1.2-0.5 1.15q-0.5 0.5-1.2 0.5"/>
  <path d="m3.15 15.3v17.7h12.35v-17.7h-12.35m-25.4 0v17.7h24.15v-17.7h-24.15m12.15-16.75q0.45-0.2 0.9 0l0.75 0.3q9.75 4 18.1 3.9 5.8-0.1 10.25-2.1-3.3-0.9-7.2-3.3-2.75-1.7-3.45-2.4l-0.95-0.7 3.65-4.45-5.95 0.8q-0.7 0.1-1.1-0.55l-0.2-0.45v-0.25q-1.55 1.8-3.75 2.8-2.25 1.05-4.7 1.05-4.25 0-7.45-2.8-3.15-2.8-3.75-6.95h-8.35v27.7h39.3q3.8-3.25 4.25-7.55v-0.5q-4.3 1.8-9.75 2-1.75 1-3.25 2.25-1.75 1.45-1.9 2.3l-0.5 0.8-0.9 0.15-0.75-0.45q-0.25-0.4-0.15-0.9 0.3-1.85 3.3-4.25-7.85-0.6-16.45-4.3l-0.65-0.65 0.05-0.9 0.6-0.6m-1.75-16.15q0.2 3.2 2.55 5.4t5.55 2.2q3.25 0 5.6-2.2t2.55-5.4h-16.25m-11.45-3.05h8.25v-0.1h21.95l-1.95-2.35-9.55 0.75q-5.85 0-10.9-1-4.95-1-7.8-2.7v5.4m34.95 14.5q4.3 3.05 8 4.3-0.85-3.05-3.2-6.6l-3.05 0.45h-0.2l-1.55 1.85m7.95-7.85q1.35-1.6 1.75-3.6h-13.8q-0.1 1.8-0.65 3.2 1.05 1.35 2.5 2.2l8.25-1.1-1.35 1.6q1.9-0.7 3.3-2.3m-2.5-15.75q0 1.7-2.2 3.25-2.1 1.45-5.85 2.5l2.7 3.25h12.65v1.45h0.3q0 2.85-1.3 5.3t-3.55 3.95q2.9 4.45 3.8 8.9h2.9l-2.45 2.1-0.15 0.1v2.95q-0.6 5.1-4.3 8.85v24.3h-46.05v-24.65h-0.1v-42.3l0.25-0.05q0.1-3.05 6.45-5.2t15.2-2.15q9 0 15.35 2.2 6.35 2.15 6.35 5.25"/>
  <path d="m14.432-13.575q-0.65 0-1.15-0.5-0.5-0.45-0.5-1.15t0.5-1.2q0.45-0.5 1.15-0.5t1.2 0.5 0.5 1.2-0.5 1.15q-0.5 0.5-1.2 0.5"/>
 </g>
</svg>

<?xml version="1.0" encoding="UTF-8" standalone="no"?>
<svg xmlns:xlink="http://www.w3.org/1999/xlink" height="74.35px" width="53.05px" xmlns="http://www.w3.org/2000/svg">
  <g transform="matrix(1.0, 0.0, 0.0, 1.0, 26.5, 37.2)">
    <path d="M-2.1 -13.05 Q-2.75 -13.05 -3.25 -13.55 -3.75 -14.0 -3.75 -14.7 -3.75 -15.4 -3.25 -15.9 -2.8 -16.4 -2.1 -16.4 -1.4 -16.4 -0.9 -15.9 -0.4 -15.4 -0.4 -14.7 -0.4 -14.0 -0.9 -13.55 -1.4 -13.05 -2.1 -13.05" fill="#000000" fill-rule="evenodd" stroke="none"/>
    <path d="M-8.45 -1.15 L4.9 -9.95 Q5.3 -9.3 6.0 -9.4 L11.95 -10.2 8.3 -5.75 9.25 -5.05 Q9.95 -4.35 12.7 -2.65 16.6 -0.25 19.9 0.65 15.45 2.65 9.65 2.75 1.3 2.85 -8.45 -1.15" fill="#ffffff" fill-rule="evenodd" stroke="none"/>
    <path d="M3.15 15.3 L3.15 33.0 15.5 33.0 15.5 15.3 3.15 15.3 M-22.25 15.3 L-22.25 33.0 1.9 33.0 1.9 15.3 -22.25 15.3 M-10.1 -1.45 Q-9.65 -1.65 -9.2 -1.45 L-8.45 -1.15 Q1.3 2.85 9.65 2.75 15.45 2.65 19.9 0.65 16.6 -0.25 12.7 -2.65 9.95 -4.35 9.25 -5.05 L8.3 -5.75 11.95 -10.2 6.0 -9.4 Q5.3 -9.3 4.9 -9.95 L4.7 -10.4 4.7 -10.65 Q3.15 -8.85 0.95 -7.85 -1.3 -6.8 -3.75 -6.8 -8.0 -6.8 -11.2 -9.6 -14.35 -12.4 -14.95 -16.55 L-23.3 -16.55 -23.3 11.15 16.0 11.15 Q19.8 7.9 20.25 3.6 L20.25 3.1 Q15.95 4.9 10.5 5.1 8.75 6.1 7.25 7.35 5.5 8.8 5.35 9.65 L4.85 10.45 3.95 10.6 3.2 10.15 Q2.95 9.75 3.05 9.25 3.35 7.4 6.35 5.0 -1.5 4.4 -10.1 0.7 L-10.75 0.05 -10.7 -0.85 -10.1 -1.45 M-11.85 -17.6 Q-11.65 -14.4 -9.3 -12.2 -6.95 -10.0 -3.75 -10.0 -0.5 -10.0 1.85 -12.2 4.2 -14.4 4.4 -17.6 L-11.85 -17.6 M-23.3 -20.65 L-15.05 -20.65 -15.05 -20.75 6.9 -20.75 4.95 -23.1 -4.6 -22.35 Q-10.45 -22.35 -15.5 -23.35 -20.45 -24.35 -23.3 -26.05 L-23.3 -20.65 M11.65 -6.15 Q15.95 -3.1 19.65 -1.85 18.8 -4.9 16.45 -8.45 L13.4 -8.0 13.2 -8.0 11.65 -6.15 M19.6 -14.0 Q20.95 -15.6 21.35 -17.6 L7.55 -17.6 Q7.45 -15.8 6.9 -14.4 7.95 -13.05 9.4 -12.2 L17.65 -13.3 16.3 -11.7 Q18.2 -12.4 19.6 -14.0 M17.1 -29.75 Q17.1 -28.05 14.9 -26.5 12.8 -25.05 9.05 -24.0 L11.75 -20.75 24.4 -20.75 24.4 -19.3 24.7 -19.3 Q24.7 -16.45 23.4 -14.0 22.1 -11.55 19.85 -10.05 22.75 -5.6 23.65 -1.15 L26.55 -1.15 24.1 0.95 23.95 1.05 23.95 4.0 Q23.35 9.1 19.65 12.85 L19.65 37.15 -26.4 37.15 -26.4 12.5 -26.5 12.5 -26.5 -29.8 -26.25 -29.85 Q-26.15 -32.9 -19.8 -35.05 -13.45 -37.2 -4.6 -37.2 4.4 -37.2 10.75 -35.0 17.1 -32.85 17.1 -29.75" fill="#000000" fill-rule="evenodd" stroke="none"/>
  </g>
</svg>
